src/assets/whiteboard_icons/clear.svg

<svg height="20" viewBox="0 0 20 20" width="20" xmlns="http://www.w3.org/2000/svg"><g fill="#343440" fill-rule="evenodd"><path d="m15.752 19.384h-11.632c-.4020633 0-.728-.3259367-.728-.728v-14.536c0-.4020633.3259367-.728.728-.728h11.632c.1923501-.00001187.3767078.07694224.5119663.21370364.1352585.13676141.2101709.32195816.2080337.51429636v14.536c.0021372.1923382-.0727752.377535-.2080337.5142964s-.3196162.2137155-.5119663.2137036zm-10.904-1.456h10.176v-13.08h-10.176z" fill-rule="nonzero"/><path d="m18.656 4.848h-17.44c-.4020633 0-.728-.3259367-.728-.728s.3259367-.728.728-.728h17.44c.4020633 0 .728.3259367.728.728s-.3259367.728-.728.728z"/><path d="m12.384 3.86517896c-.4020633 0-.728-.25246557-.728-.56389763v-1.68549622h-3.448v1.68549622c.02914012.21442995-.10213016.42296005-.33818651.53722797-.23605635.11426791-.53557063.11426791-.77162698 0-.23605635-.11426792-.36732663-.32279802-.33818651-.53722797v-2.24939385c-.00216482-.15006272.0738396-.29446862.21083817-.40058561.13699857-.106117.32342869-.16498885.51716183-.16331202h4.896c.4020633 0 .728.25246557.728.56389763v2.24939385c0 .31143206-.3259367.56389763-.728.56389763z"/><path d="m7.024 15.752c-.19235008.0000119-.37670778-.0769422-.51196632-.2137036-.13525853-.1367614-.2101709-.3219582-.20803368-.5142964v-7.272c-.02914012-.27683218.10213016-.54604756.33818651-.69356909s.53557063-.14752153.77162698 0 .36732663.41673691.33818651.69356909v7.272c0 .4020633-.3259367.728-.728.728z"/><path d="m9.936 15.752c-.4020633 0-.728-.3259367-.728-.728v-7.272c0-.4020633.3259367-.728.728-.728s.728.3259367.728.728v7.272c0 .4020633-.3259367.728-.728.728z"/><path d="m12.84 15.752c-.4020633 0-.728-.3259367-.728-.728v-7.272c0-.4020633.3259367-.728.728-.728s.728.3259367.728.728v7.272c0 .4020633-.3259367.728-.728.728z"/></g></svg>

<?xml version="1.0" encoding="UTF-8"?>
<svg width="20px" height="20px" viewBox="0 0 20 20" version="1.1" xmlns="http://www.w3.org/2000/svg" xmlns:xlink="http://www.w3.org/1999/xlink">
    <!-- Generator: Sketch 52.6 (67491) - http://www.bohemiancoding.com/sketch -->
    <title>clear_icon</title>
    <desc>Created with Sketch.</desc>
    <g id="Page-1" stroke="none" stroke-width="1" fill="none" fill-rule="evenodd">
        <g id="clear_icon" fill="#343440">
            <path d="M15.752,19.384 L4.12,19.384 C3.7179367,19.384 3.392,19.0580633 3.392,18.656 L3.392,4.12 C3.392,3.7179367 3.7179367,3.392 4.12,3.392 L15.752,3.392 C15.9443501,3.39198813 16.1287078,3.46894224 16.2639663,3.60570364 C16.3992248,3.74246505 16.4741372,3.9276618 16.472,4.12 L16.472,18.656 C16.4741372,18.8483382 16.3992248,19.033535 16.2639663,19.1702964 C16.1287078,19.3070578 15.9443501,19.3840119 15.752,19.384 Z M4.848,17.928 L15.024,17.928 L15.024,4.848 L4.848,4.848 L4.848,17.928 Z" id="Shape" fill-rule="nonzero"></path>
            <path d="M18.656,4.848 L1.216,4.848 C0.813936702,4.848 0.488,4.5220633 0.488,4.12 C0.488,3.7179367 0.813936702,3.392 1.216,3.392 L18.656,3.392 C19.0580633,3.392 19.384,3.7179367 19.384,4.12 C19.384,4.5220633 19.0580633,4.848 18.656,4.848 Z" id="Path"></path>
            <path d="M12.384,3.86517896 C11.9819367,3.86517896 11.656,3.61271339 11.656,3.30128133 L11.656,1.61578511 L8.208,1.61578511 L8.208,3.30128133 C8.23714012,3.51571128 8.10586984,3.72424138 7.86981349,3.8385093 C7.63375714,3.95277721 7.33424286,3.95277721 7.09818651,3.8385093 C6.86213016,3.72424138 6.73085988,3.51571128 6.76,3.30128133 L6.76,1.05188748 C6.75783518,0.901824763 6.8338396,0.757418858 6.97083817,0.651301866 C7.10783674,0.545184874 7.29426686,0.486313018 7.488,0.487989854 L12.384,0.487989854 C12.7860633,0.487989854 13.112,0.740455422 13.112,1.05188748 L13.112,3.30128133 C13.112,3.61271339 12.7860633,3.86517896 12.384,3.86517896 Z" id="Path"></path>
            <path d="M7.024,15.752 C6.83164992,15.7520119 6.64729222,15.6750578 6.51203368,15.5382964 C6.37677515,15.401535 6.30186278,15.2163382 6.304,15.024 L6.304,7.752 C6.27485988,7.47516782 6.40613016,7.20595244 6.64218651,7.05843091 C6.87824286,6.91090938 7.17775714,6.91090938 7.41381349,7.05843091 C7.64986984,7.20595244 7.78114012,7.47516782 7.752,7.752 L7.752,15.024 C7.752,15.4260633 7.4260633,15.752 7.024,15.752 Z" id="Path"></path>
            <path d="M9.936,15.752 C9.5339367,15.752 9.208,15.4260633 9.208,15.024 L9.208,7.752 C9.208,7.3499367 9.5339367,7.024 9.936,7.024 C10.3380633,7.024 10.664,7.3499367 10.664,7.752 L10.664,15.024 C10.664,15.4260633 10.3380633,15.752 9.936,15.752 Z" id="Path"></path>
            <path d="M12.84,15.752 C12.4379367,15.752 12.112,15.4260633 12.112,15.024 L12.112,7.752 C12.112,7.3499367 12.4379367,7.024 12.84,7.024 C13.2420633,7.024 13.568,7.3499367 13.568,7.752 L13.568,15.024 C13.568,15.4260633 13.2420633,15.752 12.84,15.752 Z" id="Path"></path>
        </g>
    </g>
</svg>
